svg/user/female_line.svg

<?xml version="1.0" encoding="UTF-8"?>
<svg width="24px" height="24px" viewBox="0 0 24 24" version="1.1" xmlns="http://www.w3.org/2000/svg" xmlns:xlink="http://www.w3.org/1999/xlink">
    <title>female_line</title>
    <g id="页面-1" stroke="none" stroke-width="1" fill="none" fill-rule="evenodd">
        <g id="female_line">
             <path d="M24,0 L24,24 L0,24 L0,0 L24,0 Z M12.5934901,23.257841 L12.5819402,23.2595131 L12.5108777,23.2950439 L12.4918791,23.2987469 L12.4918791,23.2987469 L12.4767152,23.2950439 L12.4056548,23.2595131 C12.3958229,23.2563662 12.3870493,23.2590235 12.3821421,23.2649074 L12.3780323,23.275831 L12.360941,23.7031097 L12.3658947,23.7234994 L12.3769048,23.7357139 L12.4804777,23.8096931 L12.4953491,23.8136134 L12.4953491,23.8136134 L12.5071152,23.8096931 L12.6106902,23.7357139 L12.6232938,23.7196733 L12.6232938,23.7196733 L12.6266527,23.7031097 L12.609561,23.275831 C12.6075724,23.2657013 12.6010112,23.2592993 12.5934901,23.257841 L12.5934901,23.257841 Z M12.8583906,23.1452862 L12.8445485,23.1473072 L12.6598443,23.2396597 L12.6498822,23.2499052 L12.6498822,23.2499052 L12.6471943,23.2611114 L12.6650943,23.6906389 L12.6699349,23.7034178 L12.6699349,23.7034178 L12.678386,23.7104931 L12.8793402,23.8032389 C12.8914285,23.8068999 12.9022333,23.8029875 12.9078286,23.7952264 L12.9118235,23.7811639 L12.8776777,23.1665331 C12.8752882,23.1545897 12.8674102,23.1470016 12.8583906,23.1452862 L12.8583906,23.1452862 Z M12.1430473,23.1473072 C12.1332178,23.1423925 12.1221763,23.1452606 12.1156365,23.1525954 L12.1099173,23.1665331 L12.0757714,23.7811639 C12.0751323,23.7926639 12.0828099,23.8018602 12.0926481,23.8045676 L12.108256,23.8032389 L12.3092106,23.7104931 L12.3186497,23.7024347 L12.3186497,23.7024347 L12.3225043,23.6906389 L12.340401,23.2611114 L12.337245,23.2485176 L12.337245,23.2485176 L12.3277531,23.2396597 L12.1430473,23.1473072 Z" id="MingCute" fill-rule="nonzero"></path>
            <path d="M7.00012,9.5 C7.00012,5.35786 10.358,2 14.5001,2 C18.6423,2 22.0001,5.35786 22.0001,9.5 C22.0001,13.6421 18.6423,17 14.5001,17 C12.7856,17 11.2054,16.4247 9.94209,15.4565 L8.15432,17.2443 L9.57975,18.6697 C9.97027,19.0602 9.97027,19.6934 9.57975,20.0839 C9.18922,20.4745 8.55606,20.4745 8.16553,20.0839 L6.74011,18.6585 L4.62044,20.7782 C4.22991,21.1687 3.59675,21.1687 3.20622,20.7782 C2.8157,20.3876 2.8157,19.7545 3.20622,19.364 L5.32589,17.2443 L3.92289,15.8413 C3.53237,15.4508 3.53237,14.8176 3.92289,14.4271 C4.31342,14.0366 4.94658,14.0366 5.33711,14.4271 L6.74011,15.8301 L8.52998,14.0402 C7.57006,12.7799 7.00012,11.2065 7.00012,9.5 Z M14.5001,4 C11.4625,4 9.00012,6.46243 9.00012,9.5 C9.00012,12.5376 11.4625,15 14.5001,15 C17.5377,15 20.0001,12.5376 20.0001,9.5 C20.0001,6.46243 17.5377,4 14.5001,4 Z" id="形状" fill="#09244B"></path>
        </g>
    </g>
</svg>

<svg xmlns="http://www.w3.org/2000/svg" width="24" height="24"><g fill="none" fill-rule="evenodd"><path d="M24 0v24H0V0h24ZM12.593 23.258l-.011.002-.071.035-.02.004-.014-.004-.071-.035c-.01-.004-.019-.001-.024.005l-.004.01-.017.428.005.02.01.013.104.074.015.004.012-.004.104-.074.012-.016.004-.017-.017-.427c-.002-.01-.009-.017-.017-.018Zm.265-.113-.013.002-.185.093-.01.01-.003.011.018.43.005.012.008.007.201.093c.012.004.023 0 .029-.008l.004-.014-.034-.614c-.003-.012-.01-.02-.02-.022Zm-.715.002a.023.023 0 0 0-.027.006l-.006.014-.034.614c0 .012.007.02.017.024l.015-.002.201-.093.01-.008.004-.011.017-.43-.003-.012-.01-.01-.184-.092Z"/><path fill="#09244B" d="M7 9.5a7.5 7.5 0 1 1 2.942 5.957l-1.788 1.787L9.58 18.67a1 1 0 1 1-1.414 1.414L6.74 18.659l-2.12 2.12a1 1 0 0 1-1.414-1.415l2.12-2.12-1.403-1.403a1 1 0 1 1 1.414-1.414L6.74 15.83l1.79-1.79A7.467 7.467 0 0 1 7 9.5ZM14.5 4a5.5 5.5 0 1 0 0 11 5.5 5.5 0 0 0 0-11Z"/></g></svg>
